button-2/img/button.svg

<svg enable-background="new 0 0 236 61" height="61" viewBox="0 0 236 61" width="236" xmlns="http://www.w3.org/2000/svg"><path d="m30.4 6c13.5 0 24.4 11 24.4 24.4s-11 24.4-24.4 24.4-24.4-10.9-24.4-24.4 11-24.4 24.4-24.4m0-5c-16.2 0-29.4 13.2-29.4 29.4s13.2 29.4 29.4 29.4 29.4-13.2 29.4-29.4-13.1-29.4-29.4-29.4z" fill="#ddd"/><path d="m30.4 7.6c-12.7 0-22.9 10.3-22.9 22.9s10.2 22.9 22.9 22.9 22.9-10.2 22.9-22.9c-.1-12.6-10.3-22.9-22.9-22.9zm-6.2 25.2c-1.3 1.3-3.4 1.3-4.7 0s-1.3-3.4 0-4.7 3.4-1.3 4.7 0 1.3 3.4 0 4.7zm8 8c-1.3 1.3-3.4 1.3-4.7 0s-1.3-3.4 0-4.7 3.4-1.3 4.7 0 1.3 3.4 0 4.7zm0-16.1c-1.3 1.3-3.4 1.3-4.7 0s-1.3-3.4 0-4.7 3.4-1.3 4.7 0 1.3 3.4 0 4.7zm8.1 8.1c-1.3 1.3-3.4 1.3-4.7 0s-1.3-3.4 0-4.7 3.4-1.3 4.7 0 1.3 3.4 0 4.7z" fill="#ddd"/><g fill="#eee"><path d="m105.5 9.1c-11.7 0-21.2 9.5-21.2 21.2s9.5 21.2 21.2 21.2 21.2-9.5 21.2-21.2-9.4-21.2-21.2-21.2zm-5.8 29.9c-1.8 0-3.2-1.4-3.2-3.2s1.4-3.2 3.2-3.2 3.2 1.4 3.2 3.2-1.4 3.2-3.2 3.2zm0-10.9c-1.8 0-3.2-1.4-3.2-3.2s1.4-3.2 3.2-3.2 3.2 1.4 3.2 3.2c.1 1.7-1.4 3.2-3.2 3.2zm11 10.9c-1.8 0-3.2-1.4-3.2-3.2s1.4-3.2 3.2-3.2 3.2 1.4 3.2 3.2-1.4 3.2-3.2 3.2zm0-10.9c-1.8 0-3.2-1.4-3.2-3.2s1.4-3.2 3.2-3.2 3.2 1.4 3.2 3.2c0 1.7-1.4 3.2-3.2 3.2z"/><path d="m213.1 9.1c-11.7 0-21.2 9.5-21.2 21.2s9.5 21.2 21.2 21.2 21.2-9.4 21.2-21.2-9.5-21.2-21.2-21.2zm-5.8 29.9c-1.8 0-3.2-1.4-3.2-3.2s1.4-3.2 3.2-3.2 3.2 1.4 3.2 3.2-1.5 3.2-3.2 3.2zm0-10.9c-1.8 0-3.2-1.4-3.2-3.2s1.4-3.2 3.2-3.2 3.2 1.4 3.2 3.2c0 1.7-1.5 3.2-3.2 3.2zm10.9 10.9c-1.8 0-3.2-1.4-3.2-3.2s1.4-3.2 3.2-3.2 3.2 1.4 3.2 3.2-1.4 3.2-3.2 3.2zm0-10.9c-1.8 0-3.2-1.4-3.2-3.2s1.4-3.2 3.2-3.2 3.2 1.4 3.2 3.2c0 1.7-1.4 3.2-3.2 3.2z"/><path d="m159.4 6c13.5 0 24.4 11 24.4 24.4s-11 24.4-24.4 24.4-24.4-11-24.4-24.4 10.9-24.4 24.4-24.4m0-5c-16.2 0-29.4 13.2-29.4 29.4s13.2 29.4 29.4 29.4 29.4-13.2 29.4-29.4-13.2-29.4-29.4-29.4z"/><path d="m159.4 7.7c-12.6 0-22.9 10.2-22.9 22.9 0 12.6 10.2 22.9 22.9 22.9s22.8-10.3 22.8-23c-0-12.6-10.2-22.8-22.8-22.8zm-6.2 25.1c-1.3 1.3-3.4 1.3-4.7 0s-1.3-3.4 0-4.7 3.4-1.3 4.7 0 1.3 3.4 0 4.7zm8 8.1c-1.3 1.3-3.4 1.3-4.7 0s-1.3-3.4 0-4.7 3.4-1.3 4.7 0 1.3 3.4 0 4.7zm0-16.2c-1.3 1.3-3.4 1.3-4.7 0s-1.3-3.4 0-4.7 3.4-1.3 4.7 0 1.3 3.4 0 4.7zm8.1 8.1c-1.3 1.3-3.4 1.3-4.7 0s-1.3-3.4 0-4.7 3.4-1.3 4.7 0 1.3 3.4 0 4.7z"/></g></svg>

<?xml version="1.0" encoding="utf-8"?>
<!-- Generator: Adobe Illustrator 19.1.0, SVG Export Plug-In . SVG Version: 6.00 Build 0)  -->
<!DOCTYPE svg PUBLIC "-//W3C//DTD SVG 1.1//EN" "http://www.w3.org/Graphics/SVG/1.1/DTD/svg11.dtd">
<svg version="1.1" id="Layer_1" xmlns="http://www.w3.org/2000/svg" xmlns:xlink="http://www.w3.org/1999/xlink" x="0px" y="0px"
	 viewBox="0 0 236 61" style="enable-background:new 0 0 236 61;" xml:space="preserve" width="236" height="61">
<style type="text/css">
	.st0{fill:#DDDDDD;}
	.st1{fill:#EEEEEE;}
</style>
<path class="st0" d="M30.4,6c13.5,0,24.4,11,24.4,24.4s-11,24.4-24.4,24.4S6,43.9,6,30.4S17,6,30.4,6 M30.4,1C14.2,1,1,14.2,1,30.4
	s13.2,29.4,29.4,29.4s29.4-13.2,29.4-29.4S46.7,1,30.4,1L30.4,1z"/>
<g>
	<g>
		<path class="st0" d="M30.4,7.6C17.7,7.6,7.5,17.9,7.5,30.5c0,12.6,10.2,22.9,22.9,22.9s22.9-10.2,22.9-22.9
			C53.2,17.9,43,7.6,30.4,7.6z M24.2,32.8c-1.3,1.3-3.4,1.3-4.7,0c-1.3-1.3-1.3-3.4,0-4.7c1.3-1.3,3.4-1.3,4.7,0
			C25.5,29.4,25.5,31.5,24.2,32.8z M32.2,40.8c-1.3,1.3-3.4,1.3-4.7,0s-1.3-3.4,0-4.7c1.3-1.3,3.4-1.3,4.7,0S33.5,39.5,32.2,40.8z
			 M32.2,24.7c-1.3,1.3-3.4,1.3-4.7,0c-1.3-1.3-1.3-3.4,0-4.7c1.3-1.3,3.4-1.3,4.7,0C33.5,21.3,33.5,23.4,32.2,24.7z M40.3,32.8
			c-1.3,1.3-3.4,1.3-4.7,0s-1.3-3.4,0-4.7c1.3-1.3,3.4-1.3,4.7,0C41.6,29.4,41.6,31.5,40.3,32.8z"/>
	</g>
</g>
<path class="st1" d="M105.5,9.1c-11.7,0-21.2,9.5-21.2,21.2s9.5,21.2,21.2,21.2s21.2-9.5,21.2-21.2S117.3,9.1,105.5,9.1z M99.7,39
	c-1.8,0-3.2-1.4-3.2-3.2s1.4-3.2,3.2-3.2c1.8,0,3.2,1.4,3.2,3.2S101.5,39,99.7,39z M99.7,28.1c-1.8,0-3.2-1.4-3.2-3.2
	c0-1.8,1.4-3.2,3.2-3.2c1.8,0,3.2,1.4,3.2,3.2C103,26.6,101.5,28.1,99.7,28.1z M110.7,39c-1.8,0-3.2-1.4-3.2-3.2s1.4-3.2,3.2-3.2
	c1.8,0,3.2,1.4,3.2,3.2S112.5,39,110.7,39z M110.7,28.1c-1.8,0-3.2-1.4-3.2-3.2c0-1.8,1.4-3.2,3.2-3.2c1.8,0,3.2,1.4,3.2,3.2
	C113.9,26.6,112.5,28.1,110.7,28.1z"/>
<path class="st1" d="M213.1,9.1c-11.7,0-21.2,9.5-21.2,21.2s9.5,21.2,21.2,21.2s21.2-9.4,21.2-21.2S224.8,9.1,213.1,9.1z M207.3,39
	c-1.8,0-3.2-1.4-3.2-3.2s1.4-3.2,3.2-3.2c1.8,0,3.2,1.4,3.2,3.2S209,39,207.3,39z M207.3,28.1c-1.8,0-3.2-1.4-3.2-3.2
	c0-1.8,1.4-3.2,3.2-3.2c1.8,0,3.2,1.4,3.2,3.2C210.5,26.6,209,28.1,207.3,28.1z M218.2,39c-1.8,0-3.2-1.4-3.2-3.2s1.4-3.2,3.2-3.2
	s3.2,1.4,3.2,3.2S220,39,218.2,39z M218.2,28.1c-1.8,0-3.2-1.4-3.2-3.2c0-1.8,1.4-3.2,3.2-3.2s3.2,1.4,3.2,3.2
	C221.4,26.6,220,28.1,218.2,28.1z"/>
<path class="st1" d="M159.4,6c13.5,0,24.4,11,24.4,24.4s-11,24.4-24.4,24.4c-13.4,0-24.4-11-24.4-24.4S145.9,6,159.4,6 M159.4,1
	C143.2,1,130,14.2,130,30.4s13.2,29.4,29.4,29.4s29.4-13.2,29.4-29.4S175.6,1,159.4,1L159.4,1z"/>
<g>
	<path class="st1" d="M159.4,7.7c-12.6,0-22.9,10.2-22.9,22.9c0,12.6,10.2,22.9,22.9,22.9s22.8-10.3,22.8-23
		C182.2,17.9,172,7.7,159.4,7.7z M153.2,32.8c-1.3,1.3-3.4,1.3-4.7,0c-1.3-1.3-1.3-3.4,0-4.7c1.3-1.3,3.4-1.3,4.7,0
		C154.5,29.4,154.5,31.5,153.2,32.8z M161.2,40.9c-1.3,1.3-3.4,1.3-4.7,0c-1.3-1.3-1.3-3.4,0-4.7s3.4-1.3,4.7,0
		C162.5,37.5,162.5,39.6,161.2,40.9z M161.2,24.7c-1.3,1.3-3.4,1.3-4.7,0c-1.3-1.3-1.3-3.4,0-4.7c1.3-1.3,3.4-1.3,4.7,0
		C162.5,21.3,162.5,23.4,161.2,24.7z M169.3,32.8c-1.3,1.3-3.4,1.3-4.7,0c-1.3-1.3-1.3-3.4,0-4.7c1.3-1.3,3.4-1.3,4.7,0
		C170.6,29.4,170.6,31.5,169.3,32.8z"/>
</g>
</svg>
